usr/share/icons/biglinux-icons-material-dark/22/actions/transform-browse.svg

<svg xmlns="http://www.w3.org/2000/svg" viewBox="0 0 22 22">
  <defs id="defs3051">
    <style type="text/css" id="current-color-scheme">
      .ColorScheme-Text {
        color:#dedede;
      }
      </style>
  </defs>
 <path 
    style="fill:currentColor;fill-opacity:1;stroke:none" 
    d="M 14.126982,3.0038504 C 13.505569,3.0415274 13.080397,3.4316667 12.781275,3.9145002 12.454921,2.727961 10.142268,2.6537403 9.6797049,4.3355534 9.3162369,3.9442109 8.8522199,3.6732291 8.2675918,3.7147448 l -0.023437,0 C 7.175073,3.8083685 6.418488,4.7485269 6.6015719,5.7788845 L 7.5136836,11.09003 C 7.1684365,10.853092 6.749294,10.446909 6.4414152,10.312551 5.7279278,10.001111 5.0748866,9.9620159 4.5488321,10.112795 c -1.0521011,0.301416 -1.367191,1.28666 -1.367191,1.28666 L 3,11.910594 3.4550793,12.221977 c 1.0044804,0.660697 2.0235654,2.262292 2.9863359,3.754228 0.4813889,0.745932 0.9608876,1.451139 1.5058633,2.021055 0.5449754,0.569989 1.1629057,1.007884 1.9941458,1.002694 l 0.013672,0 c 2.3334387,-0.0012 4.6665787,2.29e-4 7.0000177,0 l 0.181642,0 0.02344,-0.66781 c 0,0 0.06423,-1.240581 0.181641,-2.710407 0.11744,-1.469828 0.299423,-3.184207 0.501955,-3.977484 l 1.095702,-4.2869086 c 0.315654,-1.1777963 -0.646459,-2.3108801 -1.892582,-2.2208108 -0.382441,0.021326 -0.720257,0.1853211 -1.003909,0.399511 l 0.02148,-0.6443093 C 16.135853,3.8156678 15.231546,2.9343257 14.126982,3.0038504 Z m -2.873055,0.708936 0,0.00196 c 0.580564,-0.035544 1.138982,0.454028 1.162114,1.0203196 l 0.27539,4.9096759 c 0.01547,0.2776719 0.192309,0.2743014 0.205079,0.0235 l 0.25,-4.9331766 c 0.02138,-0.52179 0.490357,-0.9900037 1.025394,-1.0222779 0.618961,-0.039099 1.204053,0.5308617 1.164065,1.133906 l -0.273438,5.3973186 c -0.0082,0.162152 0.03913,0.241965 0.08984,0.04504 l 0.935552,-3.6210561 c 0.10664,-0.4444456 0.536166,-0.7964331 1.00391,-0.8225225 0.691479,-0.049763 1.315787,0.6800733 1.140628,1.3336615 L 17.136756,11.46604 c -0.439844,1.722894 -0.661734,6.018016 -0.687502,6.53122 L 10,18 l 0,0 c -2.1165108,-0.02144 -3.663954,-4.752128 -6.1347634,-6.377289 0,0 0.8905306,-2.5556514 4.5390744,0.998777 0,0 0.025599,-0.118762 0.068359,-0.287883 C 8.445963,12.247095 8.429444,12.155517 8.425795,12.065306 L 7.3320425,5.6672565 C 7.2291901,5.0883825 7.7119638,4.4762864 8.3125138,4.4236808 c 0.545815,-0.038388 1.0837053,0.3830307 1.1621124,0.91065 l 0.7988298,4.664878 c 0.03291,0.1925072 0.264814,0.1421962 0.250001,-0.1096702 L 10.228535,4.8466924 c -0.03692,-0.5585428 0.451921,-1.0999967 1.025392,-1.133906 z"
    class="ColorScheme-Text"
    />  
</svg>

<svg xmlns="http://www.w3.org/2000/svg" viewBox="0 0 22 22">
<defs id="defs3051">
<style id="current-color-scheme" type="text/css">
.ColorScheme-Text{color:#dedede}
</style>
</defs>
<path d="M14.127 3.004c-.621.038-1.047.428-1.346.91-.326-1.186-2.639-1.26-3.101.422-.364-.392-.828-.663-1.412-.621h-.024c-1.069.093-1.826 1.034-1.642 2.064l.912 5.311c-.346-.237-.765-.643-1.073-.777-.713-.312-1.366-.351-1.892-.2-1.052.301-1.367 1.286-1.367 1.286L3 11.911l.455.311c1.005.66 2.024 2.262 2.986 3.754.482.746.961 1.451 1.506 2.021S9.11 19.005 9.941 19h7.196l.023-.668s.064-1.24.182-2.71.3-3.184.502-3.978l1.095-4.287c.316-1.177-.646-2.31-1.892-2.22-.383.02-.72.185-1.004.399l.021-.644c.072-1.076-.832-1.958-1.937-1.888m-2.873.709v.002c.58-.036 1.139.454 1.162 1.02l.275 4.91c.016.277.193.274.206.023l.25-4.933c.02-.522.49-.99 1.025-1.022.619-.04 1.204.53 1.164 1.134l-.273 5.397c-.009.162.039.242.09.045l.935-3.621c.107-.444.536-.796 1.004-.823.691-.05 1.316.68 1.14 1.334l-1.095 4.287c-.44 1.723-.662 6.018-.688 6.531L10 18c-2.117-.021-3.664-4.752-6.135-6.377 0 0 .89-2.556 4.54.998 0 0 .025-.118.068-.287a1 1 0 0 1-.047-.269L7.332 5.667c-.103-.579.38-1.19.98-1.243.546-.039 1.084.383 1.163.91L10.273 10c.033.193.265.142.25-.11l-.294-5.042c-.037-.559.451-1.1 1.025-1.134" class="ColorScheme-Text" style="fill:currentColor;fill-opacity:1;stroke:none"/>
</svg>
